material/.icons/material/video-input-svideo.svg

<svg xmlns="http://www.w3.org/2000/svg" viewBox="0 0 24 24"><path d="M8 11.5A1.5 1.5 0 006.5 10 1.5 1.5 0 005 11.5 1.5 1.5 0 006.5 13 1.5 1.5 0 008 11.5m7-5A1.5 1.5 0 0013.5 5h-3A1.5 1.5 0 009 6.5 1.5 1.5 0 0010.5 8h3A1.5 1.5 0 0015 6.5M8.5 15A1.5 1.5 0 007 16.5 1.5 1.5 0 008.5 18a1.5 1.5 0 001.5-1.5A1.5 1.5 0 008.5 15M12 1A11 11 0 001 12a11 11 0 0011 11 11 11 0 0011-11A11 11 0 0012 1m0 20c-4.96 0-9-4.04-9-9s4.04-9 9-9 9 4.04 9 9-4.04 9-9 9m5.5-11a1.5 1.5 0 00-1.5 1.5 1.5 1.5 0 001.5 1.5 1.5 1.5 0 001.5-1.5 1.5 1.5 0 00-1.5-1.5m-2 5a1.5 1.5 0 00-1.5 1.5 1.5 1.5 0 001.5 1.5 1.5 1.5 0 001.5-1.5 1.5 1.5 0 00-1.5-1.5z"/></svg>

<?xml version="1.0" encoding="UTF-8"?><!DOCTYPE svg PUBLIC "-//W3C//DTD SVG 1.1//EN" "http://www.w3.org/Graphics/SVG/1.1/DTD/svg11.dtd"><svg xmlns="http://www.w3.org/2000/svg" xmlns:xlink="http://www.w3.org/1999/xlink" version="1.1" id="mdi-video-input-svideo" width="24" height="24" viewBox="0 0 24 24"><path d="M8,11.5A1.5,1.5 0 0,0 6.5,10A1.5,1.5 0 0,0 5,11.5A1.5,1.5 0 0,0 6.5,13A1.5,1.5 0 0,0 8,11.5M15,6.5A1.5,1.5 0 0,0 13.5,5H10.5A1.5,1.5 0 0,0 9,6.5A1.5,1.5 0 0,0 10.5,8H13.5A1.5,1.5 0 0,0 15,6.5M8.5,15A1.5,1.5 0 0,0 7,16.5A1.5,1.5 0 0,0 8.5,18A1.5,1.5 0 0,0 10,16.5A1.5,1.5 0 0,0 8.5,15M12,1A11,11 0 0,0 1,12A11,11 0 0,0 12,23A11,11 0 0,0 23,12A11,11 0 0,0 12,1M12,21C7.04,21 3,16.96 3,12C3,7.04 7.04,3 12,3C16.96,3 21,7.04 21,12C21,16.96 16.96,21 12,21M17.5,10A1.5,1.5 0 0,0 16,11.5A1.5,1.5 0 0,0 17.5,13A1.5,1.5 0 0,0 19,11.5A1.5,1.5 0 0,0 17.5,10M15.5,15A1.5,1.5 0 0,0 14,16.5A1.5,1.5 0 0,0 15.5,18A1.5,1.5 0 0,0 17,16.5A1.5,1.5 0 0,0 15.5,15Z" /></svg>
